; Generated by Kiri:Moto 2.9.5
; Fri Jun 25 2021 10:50:15 GMT+0200 (Central European Summer Time)
; Bed left:0 right:2500 top:1250 bottom:0
; Target: Sadlow
; --- process ---
; processName = default
; outputOriginCenter = false
; outputInvertX = false
; outputInvertY = false
; camTabsWidth = 10
; camTabsHeight = 5
; camDepthFirst = false
; camEaseDown = false
; camOriginTop = false
; camTolerance = 0.15
; camZBottom = 0
; camZClearance = 5
; camStockX = 2500
; camStockY = 1250
; camStockZ = 10
; camConventional = true
; camRoughTool = 1000
; camRoughSpindle = 1000
; camRoughDown = 3
; camRoughOver = 0.5
; camRoughSpeed = 1000
; camRoughPlunge = 250
; camRoughStock = 1
; camRoughOn = false
; camOutlineTool = 1000
; camOutlineSpindle = 1000
; camOutlineDown = 2
; camContourOver = 0.5
; camOutlineSpeed = 800
; camOutlinePlunge = 250
; camOutlineOn = true
; camContourXOn = false
; camContourYOn = false
; camDrillTool = 1000
; camDrillSpindle = 1000
; camDrillDownSpeed = 250
; camDrillDown = 5
; camDrillDwell = 250
; camDrillLift = 2
; camDrillingOn = false
; camRoughVoid = false
; camContourTool = 1000
; camContourSpindle = 1000
; camContourSpeed = 1000
; camContourAngle = 85
; camContourCurves = false
; camTraceTool = 1000
; camTraceSpeed = 250
; camZThru = 0
; camFastFeed = 1000
; camFastFeedZ = 300
; camStockOffset = false
; camOutlineWide = false
; camRoughFlat = false
; camRoughTop = false
; camRoughIn = false
; camOutlineDogbone = true
; camOutlineOut = false
; camOutlineIn = false
; camContourIn = false
; camTraceType = follow
; camTracePlunge = 200
; camTabsDepth = 5
; camStockOn = false
; camLevelTool = 1000
; camLevelSpindle = 1000
; camLevelOver = 0.75
; camLevelSpeed = 1000
; camLevelDown = 0
; camOutlineOver = 0.4
; camOutlineOmitThru = false
; camTraceSpindle = 1000
; camTraceOver = 0.5
; camFlipAxis = X
; camFlipOther = 
; camTabsMidline = false
; camZAnchor = top
; camZOffset = 100
; camStockClipTo = false
; op2 = 
; camTraceDown = 0
; camTraceLines = false
; camRegisterSpeed = 1000
; camExpertFast = false
; --- tools ---
; tool=1 flute=0.25 len=0 metric=false
G21 ; set units to MM (required)
G90 ; absolute position mode (required)
; starting outline op
M6 T1 ; change tool to 'end 1/4'
G0 Z15.0 F300
G0 X1073.2211 Y443.7576 F800
G1 Z7.9940 F250
G1 X1092.1455 Y427.0567 F400
G1 X1112.6387 Y412.3231
G1 X1134.4971 Y399.7032
G1 X1157.5033 Y389.3224
G1 X1181.4289 Y381.2838
G1 X1206.0359 Y375.6674
G1 X1231.0799 Y372.5290
G1 X1256.3119 Y371.8998
G1 X1281.4812 Y373.7859
G1 X1306.3376 Y378.1688
G1 X1330.6341 Y385.0047
G1 X1354.1292 Y394.2259
G1 X1376.5895 Y405.7406
G1 X1397.7916 Y419.4344
G1 X1417.5249 Y435.1712
G1 X1435.5933 Y452.7946
G1 X1451.8172 Y472.1294
G1 X1466.0353 Y492.9836
G1 X1478.1063 Y515.1498
G1 X1487.9104 Y538.4077
G1 X1495.3500 Y562.5262
G1 X1500.3512 Y587.2656
G1 X1502.8603 Y612.3406
G1 X1503.1760 Y625.0
G1 X1502.8603 Y637.6594
G1 X1500.3512 Y662.7344
G1 X1495.3500 Y687.4738
G1 X1487.9104 Y711.5923
G1 X1478.1063 Y734.8502
G1 X1466.0353 Y757.0164
G1 X1451.8172 Y777.8706
G1 X1435.5933 Y797.2054
G1 X1417.5249 Y814.8288
G1 X1397.7916 Y830.5656
G1 X1376.5895 Y844.2594
G1 X1354.1292 Y855.7741
G1 X1330.6341 Y864.9953
G1 X1306.3376 Y871.8312
G1 X1281.4812 Y876.2141
G1 X1256.3119 Y878.1003
G1 X1231.0799 Y877.4710
G1 X1206.0359 Y874.3326
G1 X1181.4289 Y868.7162
G1 X1157.5033 Y860.6776
G1 X1134.4971 Y850.2968
G1 X1112.6387 Y837.6769
G1 X1092.1455 Y822.9433
G1 X1073.2211 Y806.2424
G1 X1056.0537 Y787.7403
G1 X1040.8137 Y767.6208
G1 X1027.6528 Y746.0839
G1 X1016.7016 Y723.3435
G1 X1008.0691 Y699.6258
G1 X1001.8409 Y675.1664
G1 X998.0792 Y650.2085
G1 X996.8211 Y625.0
G1 X998.0792 Y599.7915
G1 X1001.8409 Y574.8336
G1 X1008.0691 Y550.3742
G1 X1016.7016 Y526.6565
G1 X1027.6528 Y503.9162
G1 X1040.8137 Y482.3792
G1 X1056.0537 Y462.2597
G1 X1073.2211 Y443.7576
G0 Z14.9900 F300
G0 X1102.2770 Y477.2770 F800
G1 Z7.9940 F300
G1 X1103.1750 Y478.1750 F400
G1 Y621.8250
G1 X1102.2770 Y622.7230
G1 X1103.1750 Y621.8250
G1 X1246.8250
G1 X1247.7230 Y622.7230
G1 X1246.8250 Y621.8250
G1 Y478.1750
G1 X1247.7230 Y477.2770
G1 X1246.8250 Y478.1750
G1 X1103.1750
G1 X1102.2770 Y477.2770
G0 Z14.9900 F300
G0 X1288.2403 Y661.9740 F800
G1 Z7.9940 F300
G1 X1283.3703 Y667.2227 F400
G1 X1279.0470 Y672.9301
G1 X1275.3136 Y679.0397
G1 X1272.2069 Y685.4906
G1 X1269.7581 Y692.2187
G1 X1267.9913 Y699.1573
G1 X1266.9242 Y706.2373
G1 X1266.5673 Y713.3883
G1 X1266.9242 Y720.5394
G1 X1267.9913 Y727.6194
G1 X1269.7581 Y734.5580
G1 X1272.2069 Y741.2861
G1 X1275.3136 Y747.7370
G1 X1279.0470 Y753.8466
G1 X1283.3702 Y759.5540
G1 X1288.2403 Y764.8027
G1 X1293.6086 Y769.5403
G1 X1299.4222 Y773.7199
G1 X1305.6228 Y777.2998
G1 X1312.1492 Y780.2447
G1 X1318.9363 Y782.5250
G1 X1325.9168 Y784.1183
G1 X1333.0212 Y785.0086
G1 X1340.1789 Y785.1871
G1 X1347.3189 Y784.6520
G1 X1354.3700 Y783.4087
G1 X1361.2624 Y781.4695
G1 X1367.9275 Y778.8537
G1 X1374.2988 Y775.5872
G1 X1380.3135 Y771.7026
G1 X1385.9113 Y767.2384
G1 X1391.0369 Y762.2391
G1 X1395.6392 Y756.7542
G1 X1399.6726 Y750.8384
G1 X1403.0969 Y744.5503
G1 X1405.8781 Y737.9526
G1 X1407.9885 Y731.1108
G1 X1409.4072 Y724.0927
G1 X1410.1241 Y716.9289
G1 X1410.2124 Y713.3883
G1 X1410.1241 Y709.8478
G1 X1409.4072 Y702.6840
G1 X1407.9885 Y695.6659
G1 X1405.8781 Y688.8241
G1 X1403.0969 Y682.2264
G1 X1399.6726 Y675.9383
G1 X1395.6392 Y670.0225
G1 X1391.0369 Y664.5376
G1 X1385.9113 Y659.5382
G1 X1380.3135 Y655.0741
G1 X1374.2988 Y651.1895
G1 X1367.9274 Y647.9230
G1 X1361.2624 Y645.3072
G1 X1354.3701 Y643.3680
G1 X1347.3188 Y642.1247
G1 X1340.1789 Y641.5896
G1 X1333.0212 Y641.7681
G1 X1325.9168 Y642.6584
G1 X1318.9363 Y644.2517
G1 X1312.1492 Y646.5320
G1 X1305.6228 Y649.4768
G1 X1299.4221 Y653.0568
G1 X1293.6087 Y657.2364
G1 X1288.2403 Y661.9740
G1 Z5.9980 F250
G1 X1283.3703 Y667.2227 F400
G1 X1279.0470 Y672.9301
G1 X1275.3136 Y679.0397
G1 X1272.2069 Y685.4906
G1 X1269.7581 Y692.2187
G1 X1267.9913 Y699.1573
G1 X1266.9242 Y706.2373
G1 X1266.5673 Y713.3883
G1 X1266.9242 Y720.5394
G1 X1267.9913 Y727.6194
G1 X1269.7581 Y734.5580
G1 X1272.2069 Y741.2861
G1 X1275.3136 Y747.7370
G1 X1279.0470 Y753.8466
G1 X1283.3702 Y759.5540
G1 X1288.2403 Y764.8027
G1 X1293.6086 Y769.5403
G1 X1299.4222 Y773.7199
G1 X1305.6228 Y777.2998
G1 X1312.1492 Y780.2447
G1 X1318.9363 Y782.5250
G1 X1325.9168 Y784.1183
G1 X1333.0212 Y785.0086
G1 X1340.1789 Y785.1871
G1 X1347.3189 Y784.6520
G1 X1354.3700 Y783.4087
G1 X1361.2624 Y781.4695
G1 X1367.9275 Y778.8537
G1 X1374.2988 Y775.5872
G1 X1380.3135 Y771.7026
G1 X1385.9113 Y767.2384
G1 X1391.0369 Y762.2391
G1 X1395.6392 Y756.7542
G1 X1399.6726 Y750.8384
G1 X1403.0969 Y744.5503
G1 X1405.8781 Y737.9526
G1 X1407.9885 Y731.1108
G1 X1409.4072 Y724.0927
G1 X1410.1241 Y716.9289
G1 X1410.2124 Y713.3883
G1 X1410.1241 Y709.8478
G1 X1409.4072 Y702.6840
G1 X1407.9885 Y695.6659
G1 X1405.8781 Y688.8241
G1 X1403.0969 Y682.2264
G1 X1399.6726 Y675.9383
G1 X1395.6392 Y670.0225
G1 X1391.0369 Y664.5376
G1 X1385.9113 Y659.5382
G1 X1380.3135 Y655.0741
G1 X1374.2988 Y651.1895
G1 X1367.9274 Y647.9230
G1 X1361.2624 Y645.3072
G1 X1354.3701 Y643.3680
G1 X1347.3188 Y642.1247
G1 X1340.1789 Y641.5896
G1 X1333.0212 Y641.7681
G1 X1325.9168 Y642.6584
G1 X1318.9363 Y644.2517
G1 X1312.1492 Y646.5320
G1 X1305.6228 Y649.4768
G1 X1299.4221 Y653.0568
G1 X1293.6087 Y657.2364
G1 X1288.2403 Y661.9740
G0 Z14.9900 F300
G0 X1247.7230 Y622.7230 F800
G1 Z5.9980 F300
G1 X1246.8250 Y621.8250 F400
G1 Y478.1750
G1 X1247.7230 Y477.2770
G1 X1246.8250 Y478.1750
G1 X1103.1750
G1 X1102.2770 Y477.2770
G1 X1103.1750 Y478.1750
G1 Y621.8250
G1 X1102.2770 Y622.7230
G1 X1103.1750 Y621.8250
G1 X1246.8250
G1 X1247.7230 Y622.7230
G0 Z14.9900 F300
G0 X1073.2211 Y443.7576 F800
G1 Z5.9980 F300
G1 X1092.1455 Y427.0567 F400
G1 X1112.6387 Y412.3231
G1 X1134.4971 Y399.7032
G1 X1157.5033 Y389.3224
G1 X1181.4289 Y381.2838
G1 X1206.0359 Y375.6674
G1 X1231.0799 Y372.5290
G1 X1256.3119 Y371.8998
G1 X1281.4812 Y373.7859
G1 X1306.3376 Y378.1688
G1 X1330.6341 Y385.0047
G1 X1354.1292 Y394.2259
G1 X1376.5895 Y405.7406
G1 X1397.7916 Y419.4344
G1 X1417.5249 Y435.1712
G1 X1435.5933 Y452.7946
G1 X1451.8172 Y472.1294
G1 X1466.0353 Y492.9836
G1 X1478.1063 Y515.1498
G1 X1487.9104 Y538.4077
G1 X1495.3500 Y562.5262
G1 X1500.3512 Y587.2656
G1 X1502.8603 Y612.3406
G1 X1503.1760 Y625.0
G1 X1502.8603 Y637.6594
G1 X1500.3512 Y662.7344
G1 X1495.3500 Y687.4738
G1 X1487.9104 Y711.5923
G1 X1478.1063 Y734.8502
G1 X1466.0353 Y757.0164
G1 X1451.8172 Y777.8706
G1 X1435.5933 Y797.2054
G1 X1417.5249 Y814.8288
G1 X1397.7916 Y830.5656
G1 X1376.5895 Y844.2594
G1 X1354.1292 Y855.7741
G1 X1330.6341 Y864.9953
G1 X1306.3376 Y871.8312
G1 X1281.4812 Y876.2141
G1 X1256.3119 Y878.1003
G1 X1231.0799 Y877.4710
G1 X1206.0359 Y874.3326
G1 X1181.4289 Y868.7162
G1 X1157.5033 Y860.6776
G1 X1134.4971 Y850.2968
G1 X1112.6387 Y837.6769
G1 X1092.1455 Y822.9433
G1 X1073.2211 Y806.2424
G1 X1056.0537 Y787.7403
G1 X1040.8137 Y767.6208
G1 X1027.6528 Y746.0839
G1 X1016.7016 Y723.3435
G1 X1008.0691 Y699.6258
G1 X1001.8409 Y675.1664
G1 X998.0792 Y650.2085
G1 X996.8211 Y625.0
G1 X998.0792 Y599.7915
G1 X1001.8409 Y574.8336
G1 X1008.0691 Y550.3742
G1 X1016.7016 Y526.6565
G1 X1027.6528 Y503.9162
G1 X1040.8137 Y482.3792
G1 X1056.0537 Y462.2597
G1 X1073.2211 Y443.7576
G1 Z4.0020 F250
G1 X1092.1455 Y427.0567 F400
G1 X1112.6387 Y412.3231
G1 X1134.4971 Y399.7032
G1 X1157.5033 Y389.3224
G1 X1181.4289 Y381.2838
G1 X1206.0359 Y375.6674
G1 X1231.0799 Y372.5290
G1 X1256.3119 Y371.8998
G1 X1281.4812 Y373.7859
G1 X1306.3376 Y378.1688
G1 X1330.6341 Y385.0047
G1 X1354.1292 Y394.2259
G1 X1376.5895 Y405.7406
G1 X1397.7916 Y419.4344
G1 X1417.5249 Y435.1712
G1 X1435.5933 Y452.7946
G1 X1451.8172 Y472.1294
G1 X1466.0353 Y492.9836
G1 X1478.1063 Y515.1498
G1 X1487.9104 Y538.4077
G1 X1495.3500 Y562.5262
G1 X1500.3512 Y587.2656
G1 X1502.8603 Y612.3406
G1 X1503.1760 Y625.0
G1 X1502.8603 Y637.6594
G1 X1500.3512 Y662.7344
G1 X1495.3500 Y687.4738
G1 X1487.9104 Y711.5923
G1 X1478.1063 Y734.8502
G1 X1466.0353 Y757.0164
G1 X1451.8172 Y777.8706
G1 X1435.5933 Y797.2054
G1 X1417.5249 Y814.8288
G1 X1397.7916 Y830.5656
G1 X1376.5895 Y844.2594
G1 X1354.1292 Y855.7741
G1 X1330.6341 Y864.9953
G1 X1306.3376 Y871.8312
G1 X1281.4812 Y876.2141
G1 X1256.3119 Y878.1003
G1 X1231.0799 Y877.4710
G1 X1206.0359 Y874.3326
G1 X1181.4289 Y868.7162
G1 X1157.5033 Y860.6776
G1 X1134.4971 Y850.2968
G1 X1112.6387 Y837.6769
G1 X1092.1455 Y822.9433
G1 X1073.2211 Y806.2424
G1 X1056.0537 Y787.7403
G1 X1040.8137 Y767.6208
G1 X1027.6528 Y746.0839
G1 X1016.7016 Y723.3435
G1 X1008.0691 Y699.6258
G1 X1001.8409 Y675.1664
G1 X998.0792 Y650.2085
G1 X996.8211 Y625.0
G1 X998.0792 Y599.7915
G1 X1001.8409 Y574.8336
G1 X1008.0691 Y550.3742
G1 X1016.7016 Y526.6565
G1 X1027.6528 Y503.9162
G1 X1040.8137 Y482.3792
G1 X1056.0537 Y462.2597
G1 X1073.2211 Y443.7576
G0 Z14.9900 F300
G0 X1102.2770 Y477.2770 F800
G1 Z4.0020 F300
G1 X1103.1750 Y478.1750 F400
G1 Y621.8250
G1 X1102.2770 Y622.7230
G1 X1103.1750 Y621.8250
G1 X1246.8250
G1 X1247.7230 Y622.7230
G1 X1246.8250 Y621.8250
G1 Y478.1750
G1 X1247.7230 Y477.2770
G1 X1246.8250 Y478.1750
G1 X1103.1750
G1 X1102.2770 Y477.2770
G0 Z14.9900 F300
G0 X1288.2403 Y661.9740 F800
G1 Z4.0020 F300
G1 X1283.3703 Y667.2227 F400
G1 X1279.0470 Y672.9301
G1 X1275.3136 Y679.0397
G1 X1272.2069 Y685.4906
G1 X1269.7581 Y692.2187
G1 X1267.9913 Y699.1573
G1 X1266.9242 Y706.2373
G1 X1266.5673 Y713.3883
G1 X1266.9242 Y720.5394
G1 X1267.9913 Y727.6194
G1 X1269.7581 Y734.5580
G1 X1272.2069 Y741.2861
G1 X1275.3136 Y747.7370
G1 X1279.0470 Y753.8466
G1 X1283.3702 Y759.5540
G1 X1288.2403 Y764.8027
G1 X1293.6086 Y769.5403
G1 X1299.4222 Y773.7199
G1 X1305.6228 Y777.2998
G1 X1312.1492 Y780.2447
G1 X1318.9363 Y782.5250
G1 X1325.9168 Y784.1183
G1 X1333.0212 Y785.0086
G1 X1340.1789 Y785.1871
G1 X1347.3189 Y784.6520
G1 X1354.3700 Y783.4087
G1 X1361.2624 Y781.4695
G1 X1367.9275 Y778.8537
G1 X1374.2988 Y775.5872
G1 X1380.3135 Y771.7026
G1 X1385.9113 Y767.2384
G1 X1391.0369 Y762.2391
G1 X1395.6392 Y756.7542
G1 X1399.6726 Y750.8384
G1 X1403.0969 Y744.5503
G1 X1405.8781 Y737.9526
G1 X1407.9885 Y731.1108
G1 X1409.4072 Y724.0927
G1 X1410.1241 Y716.9289
G1 X1410.2124 Y713.3883
G1 X1410.1241 Y709.8478
G1 X1409.4072 Y702.6840
G1 X1407.9885 Y695.6659
G1 X1405.8781 Y688.8241
G1 X1403.0969 Y682.2264
G1 X1399.6726 Y675.9383
G1 X1395.6392 Y670.0225
G1 X1391.0369 Y664.5376
G1 X1385.9113 Y659.5382
G1 X1380.3135 Y655.0741
G1 X1374.2988 Y651.1895
G1 X1367.9274 Y647.9230
G1 X1361.2624 Y645.3072
G1 X1354.3701 Y643.3680
G1 X1347.3188 Y642.1247
G1 X1340.1789 Y641.5896
G1 X1333.0212 Y641.7681
G1 X1325.9168 Y642.6584
G1 X1318.9363 Y644.2517
G1 X1312.1492 Y646.5320
G1 X1305.6228 Y649.4768
G1 X1299.4221 Y653.0568
G1 X1293.6087 Y657.2364
G1 X1288.2403 Y661.9740
G1 Z2.0060 F250
G1 X1283.3703 Y667.2227 F400
G1 X1279.0470 Y672.9301
G1 X1275.3136 Y679.0397
G1 X1272.2069 Y685.4906
G1 X1269.7581 Y692.2187
G1 X1267.9913 Y699.1573
G1 X1266.9242 Y706.2373
G1 X1266.5673 Y713.3883
G1 X1266.9242 Y720.5394
G1 X1267.9913 Y727.6194
G1 X1269.7581 Y734.5580
G1 X1272.2069 Y741.2861
G1 X1275.3136 Y747.7370
G1 X1279.0470 Y753.8466
G1 X1283.3702 Y759.5540
G1 X1288.2403 Y764.8027
G1 X1293.6086 Y769.5403
G1 X1299.4222 Y773.7199
G1 X1305.6228 Y777.2998
G1 X1312.1492 Y780.2447
G1 X1318.9363 Y782.5250
G1 X1325.9168 Y784.1183
G1 X1333.0212 Y785.0086
G1 X1340.1789 Y785.1871
G1 X1347.3189 Y784.6520
G1 X1354.3700 Y783.4087
G1 X1361.2624 Y781.4695
G1 X1367.9275 Y778.8537
G1 X1374.2988 Y775.5872
G1 X1380.3135 Y771.7026
G1 X1385.9113 Y767.2384
G1 X1391.0369 Y762.2391
G1 X1395.6392 Y756.7542
G1 X1399.6726 Y750.8384
G1 X1403.0969 Y744.5503
G1 X1405.8781 Y737.9526
G1 X1407.9885 Y731.1108
G1 X1409.4072 Y724.0927
G1 X1410.1241 Y716.9289
G1 X1410.2124 Y713.3883
G1 X1410.1241 Y709.8478
G1 X1409.4072 Y702.6840
G1 X1407.9885 Y695.6659
G1 X1405.8781 Y688.8241
G1 X1403.0969 Y682.2264
G1 X1399.6726 Y675.9383
G1 X1395.6392 Y670.0225
G1 X1391.0369 Y664.5376
G1 X1385.9113 Y659.5382
G1 X1380.3135 Y655.0741
G1 X1374.2988 Y651.1895
G1 X1367.9274 Y647.9230
G1 X1361.2624 Y645.3072
G1 X1354.3701 Y643.3680
G1 X1347.3188 Y642.1247
G1 X1340.1789 Y641.5896
G1 X1333.0212 Y641.7681
G1 X1325.9168 Y642.6584
G1 X1318.9363 Y644.2517
G1 X1312.1492 Y646.5320
G1 X1305.6228 Y649.4768
G1 X1299.4221 Y653.0568
G1 X1293.6087 Y657.2364
G1 X1288.2403 Y661.9740
G0 Z14.9900 F300
G0 X1247.7230 Y622.7230 F800
G1 Z2.0060 F300
G1 X1246.8250 Y621.8250 F400
G1 Y478.1750
G1 X1247.7230 Y477.2770
G1 X1246.8250 Y478.1750
G1 X1103.1750
G1 X1102.2770 Y477.2770
G1 X1103.1750 Y478.1750
G1 Y621.8250
G1 X1102.2770 Y622.7230
G1 X1103.1750 Y621.8250
G1 X1246.8250
G1 X1247.7230 Y622.7230
G0 Z14.9900 F300
G0 X1073.2211 Y443.7576 F800
G1 Z2.0060 F300
G1 X1092.1455 Y427.0567 F400
G1 X1112.6387 Y412.3231
G1 X1134.4971 Y399.7032
G1 X1157.5033 Y389.3224
G1 X1181.4289 Y381.2838
G1 X1206.0359 Y375.6674
G1 X1231.0799 Y372.5290
G1 X1256.3119 Y371.8998
G1 X1281.4812 Y373.7859
G1 X1306.3376 Y378.1688
G1 X1330.6341 Y385.0047
G1 X1354.1292 Y394.2259
G1 X1376.5895 Y405.7406
G1 X1397.7916 Y419.4344
G1 X1417.5249 Y435.1712
G1 X1435.5933 Y452.7946
G1 X1451.8172 Y472.1294
G1 X1466.0353 Y492.9836
G1 X1478.1063 Y515.1498
G1 X1487.9104 Y538.4077
G1 X1495.3500 Y562.5262
G1 X1500.3512 Y587.2656
G1 X1502.8603 Y612.3406
G1 X1503.1760 Y625.0
G1 X1502.8603 Y637.6594
G1 X1500.3512 Y662.7344
G1 X1495.3500 Y687.4738
G1 X1487.9104 Y711.5923
G1 X1478.1063 Y734.8502
G1 X1466.0353 Y757.0164
G1 X1451.8172 Y777.8706
G1 X1435.5933 Y797.2054
G1 X1417.5249 Y814.8288
G1 X1397.7916 Y830.5656
G1 X1376.5895 Y844.2594
G1 X1354.1292 Y855.7741
G1 X1330.6341 Y864.9953
G1 X1306.3376 Y871.8312
G1 X1281.4812 Y876.2141
G1 X1256.3119 Y878.1003
G1 X1231.0799 Y877.4710
G1 X1206.0359 Y874.3326
G1 X1181.4289 Y868.7162
G1 X1157.5033 Y860.6776
G1 X1134.4971 Y850.2968
G1 X1112.6387 Y837.6769
G1 X1092.1455 Y822.9433
G1 X1073.2211 Y806.2424
G1 X1056.0537 Y787.7403
G1 X1040.8137 Y767.6208
G1 X1027.6528 Y746.0839
G1 X1016.7016 Y723.3435
G1 X1008.0691 Y699.6258
G1 X1001.8409 Y675.1664
G1 X998.0792 Y650.2085
G1 X996.8211 Y625.0
G1 X998.0792 Y599.7915
G1 X1001.8409 Y574.8336
G1 X1008.0691 Y550.3742
G1 X1016.7016 Y526.6565
G1 X1027.6528 Y503.9162
G1 X1040.8137 Y482.3792
G1 X1056.0537 Y462.2597
G1 X1073.2211 Y443.7576
G1 Z0.0100 F250
G1 X1092.1455 Y427.0567 F400
G1 X1112.6387 Y412.3231
G1 X1134.4971 Y399.7032
G1 X1157.5033 Y389.3224
G1 X1181.4289 Y381.2838
G1 X1206.0359 Y375.6674
G1 X1231.0799 Y372.5290
G1 X1256.3119 Y371.8998
G1 X1281.4812 Y373.7859
G1 X1306.3376 Y378.1688
G1 X1330.6341 Y385.0047
G1 X1354.1292 Y394.2259
G1 X1376.5895 Y405.7406
G1 X1397.7916 Y419.4344
G1 X1417.5249 Y435.1712
G1 X1435.5933 Y452.7946
G1 X1451.8172 Y472.1294
G1 X1466.0353 Y492.9836
G1 X1478.1063 Y515.1498
G1 X1487.9104 Y538.4077
G1 X1495.3500 Y562.5262
G1 X1500.3512 Y587.2656
G1 X1502.8603 Y612.3406
G1 X1503.1760 Y625.0
G1 X1502.8603 Y637.6594
G1 X1500.3512 Y662.7344
G1 X1495.3500 Y687.4738
G1 X1487.9104 Y711.5923
G1 X1478.1063 Y734.8502
G1 X1466.0353 Y757.0164
G1 X1451.8172 Y777.8706
G1 X1435.5933 Y797.2054
G1 X1417.5249 Y814.8288
G1 X1397.7916 Y830.5656
G1 X1376.5895 Y844.2594
G1 X1354.1292 Y855.7741
G1 X1330.6341 Y864.9953
G1 X1306.3376 Y871.8312
G1 X1281.4812 Y876.2141
G1 X1256.3119 Y878.1003
G1 X1231.0799 Y877.4710
G1 X1206.0359 Y874.3326
G1 X1181.4289 Y868.7162
G1 X1157.5033 Y860.6776
G1 X1134.4971 Y850.2968
G1 X1112.6387 Y837.6769
G1 X1092.1455 Y822.9433
G1 X1073.2211 Y806.2424
G1 X1056.0537 Y787.7403
G1 X1040.8137 Y767.6208
G1 X1027.6528 Y746.0839
G1 X1016.7016 Y723.3435
G1 X1008.0691 Y699.6258
G1 X1001.8409 Y675.1664
G1 X998.0792 Y650.2085
G1 X996.8211 Y625.0
G1 X998.0792 Y599.7915
G1 X1001.8409 Y574.8336
G1 X1008.0691 Y550.3742
G1 X1016.7016 Y526.6565
G1 X1027.6528 Y503.9162
G1 X1040.8137 Y482.3792
G1 X1056.0537 Y462.2597
G1 X1073.2211 Y443.7576
G0 Z14.9900 F300
G0 X1102.2770 Y477.2770 F800
G1 Z0.0100 F300
G1 X1103.1750 Y478.1750 F400
G1 Y621.8250
G1 X1102.2770 Y622.7230
G1 X1103.1750 Y621.8250
G1 X1246.8250
G1 X1247.7230 Y622.7230
G1 X1246.8250 Y621.8250
G1 Y478.1750
G1 X1247.7230 Y477.2770
G1 X1246.8250 Y478.1750
G1 X1103.1750
G1 X1102.2770 Y477.2770
G0 Z14.9900 F300
G0 X1288.2403 Y661.9740 F800
G1 Z0.0100 F300
G1 X1283.3703 Y667.2227 F400
G1 X1279.0470 Y672.9301
G1 X1275.3136 Y679.0397
G1 X1272.2069 Y685.4906
G1 X1269.7581 Y692.2187
G1 X1267.9913 Y699.1573
G1 X1266.9242 Y706.2373
G1 X1266.5673 Y713.3883
G1 X1266.9242 Y720.5394
G1 X1267.9913 Y727.6194
G1 X1269.7581 Y734.5580
G1 X1272.2069 Y741.2861
G1 X1275.3136 Y747.7370
G1 X1279.0470 Y753.8466
G1 X1283.3702 Y759.5540
G1 X1288.2403 Y764.8027
G1 X1293.6086 Y769.5403
G1 X1299.4222 Y773.7199
G1 X1305.6228 Y777.2998
G1 X1312.1492 Y780.2447
G1 X1318.9363 Y782.5250
G1 X1325.9168 Y784.1183
G1 X1333.0212 Y785.0086
G1 X1340.1789 Y785.1871
G1 X1347.3189 Y784.6520
G1 X1354.3700 Y783.4087
G1 X1361.2624 Y781.4695
G1 X1367.9275 Y778.8537
G1 X1374.2988 Y775.5872
G1 X1380.3135 Y771.7026
G1 X1385.9113 Y767.2384
G1 X1391.0369 Y762.2391
G1 X1395.6392 Y756.7542
G1 X1399.6726 Y750.8384
G1 X1403.0969 Y744.5503
G1 X1405.8781 Y737.9526
G1 X1407.9885 Y731.1108
G1 X1409.4072 Y724.0927
G1 X1410.1241 Y716.9289
G1 X1410.2124 Y713.3883
G1 X1410.1241 Y709.8478
G1 X1409.4072 Y702.6840
G1 X1407.9885 Y695.6659
G1 X1405.8781 Y688.8241
G1 X1403.0969 Y682.2264
G1 X1399.6726 Y675.9383
G1 X1395.6392 Y670.0225
G1 X1391.0369 Y664.5376
G1 X1385.9113 Y659.5382
G1 X1380.3135 Y655.0741
G1 X1374.2988 Y651.1895
G1 X1367.9274 Y647.9230
G1 X1361.2624 Y645.3072
G1 X1354.3701 Y643.3680
G1 X1347.3188 Y642.1247
G1 X1340.1789 Y641.5896
G1 X1333.0212 Y641.7681
G1 X1325.9168 Y642.6584
G1 X1318.9363 Y644.2517
G1 X1312.1492 Y646.5320
G1 X1305.6228 Y649.4768
G1 X1299.4221 Y653.0568
G1 X1293.6087 Y657.2364
G1 X1288.2403 Y661.9740
G0 Z15.0 F300
; ending outline op after 20 seconds
M30 ; program end