; Generated by Kiri:Moto 2.9.5
; Tue Jul 27 2021 12:22:47 GMT+0200 (Central European Summer Time)
; Bed left:0 right:2500 top:1250 bottom:0
; Target: Sadlow
; --- process ---
; processName = default
; outputOriginCenter = false
; outputInvertX = false
; outputInvertY = false
; camTabsWidth = 10
; camTabsHeight = 5
; camDepthFirst = false
; camEaseDown = false
; camOriginTop = true
; camTolerance = 0.5
; camZBottom = 0
; camZClearance = 5
; camStockX = 2500
; camStockY = 1250
; camStockZ = 10
; camConventional = false
; camRoughTool = 1000
; camRoughSpindle = 1000
; camRoughDown = 3
; camRoughOver = 0.5
; camRoughSpeed = 1000
; camRoughPlunge = 250
; camRoughStock = 1
; camRoughOn = false
; camOutlineTool = 1000
; camOutlineSpindle = 1000
; camOutlineDown = 5
; camContourOver = 0.5
; camOutlineSpeed = 300
; camOutlinePlunge = 250
; camOutlineOn = true
; camContourXOn = false
; camContourYOn = false
; camDrillTool = 1000
; camDrillSpindle = 1000
; camDrillDownSpeed = 250
; camDrillDown = 5
; camDrillDwell = 250
; camDrillLift = 2
; camDrillingOn = false
; camRoughVoid = false
; camContourTool = 1000
; camContourSpindle = 1000
; camContourSpeed = 300
; camContourAngle = 85
; camContourCurves = false
; camTraceTool = 1000
; camTraceSpeed = 250
; camZThru = 0
; camFastFeed = 500
; camFastFeedZ = 300
; camStockOffset = false
; camOutlineWide = false
; camRoughFlat = false
; camRoughTop = false
; camRoughIn = false
; camOutlineDogbone = true
; camOutlineOut = false
; camOutlineIn = false
; camContourIn = false
; camTraceType = follow
; camTracePlunge = 200
; camTabsDepth = 5
; camStockOn = false
; camLevelTool = 1000
; camLevelSpindle = 1000
; camLevelOver = 0.75
; camLevelSpeed = 1000
; camLevelDown = 0
; camOutlineOver = 0.4
; camOutlineOmitThru = false
; camTraceSpindle = 1000
; camTraceOver = 0.5
; camFlipAxis = X
; camFlipOther = 
; camTabsMidline = false
; camZAnchor = top
; camZOffset = 0
; camStockClipTo = false
; op2 = 
; camTraceDown = 0
; camTraceLines = true
; camRegisterSpeed = 1000
; camExpertFast = false
; --- tools ---
; tool=1 flute=5 len=20 metric=true
G21 ; set units to MM (required)
G90 ; absolute position mode (required)
; starting outline op
M6 T1 ; change tool to 'end 1/4'
G0 Z5.0 F300
G0 X1087.3904 Y459.4563 F500
G1 Z-5.0 F250
G1 X1068.9759 Y476.5953 F300
G1 X1052.3582 Y495.4816
G1 X1037.7022 Y515.9277
G1 X1025.1534 Y537.7306
G1 X1014.8363 Y560.6739
G1 X1006.8534 Y584.5300
G1 X1001.2839 Y609.0621
G1 X998.1831 Y634.0265
G1 X997.5818 Y659.1757
G1 X999.4858 Y684.2598
G1 X1003.8764 Y709.0300
G1 X1010.7099 Y733.2404
G1 X1019.9186 Y756.6507
G1 X1031.4110 Y779.0285
G1 X1045.0730 Y800.1517
G1 X1060.7690 Y819.8106
G1 X1078.3433 Y837.8102
G1 X1097.6214 Y853.9717
G1 X1118.4120 Y868.1347
G1 X1140.5087 Y880.1587
G1 X1163.6921 Y889.9244
G1 X1187.7322 Y897.3347
G1 X1212.3904 Y902.3162
G1 X1237.4218 Y904.8193
G1 X1262.5782
G1 X1287.6096 Y902.3162
G1 X1312.2678 Y897.3347
G1 X1336.3079 Y889.9244
G1 X1359.4913 Y880.1587
G1 X1381.5880 Y868.1347
G1 X1402.3786 Y853.9717
G1 X1421.6567 Y837.8102
G1 X1439.2310 Y819.8106
G1 X1454.9271 Y800.1517
G1 X1468.5890 Y779.0285
G1 X1480.0814 Y756.6507
G1 X1489.2901 Y733.2404
G1 X1496.1236 Y709.0300
G1 X1500.5142 Y684.2598
G1 X1502.4182 Y659.1757
G1 X1501.8169 Y634.0265
G1 X1498.7161 Y609.0621
G1 X1493.1466 Y584.5300
G1 X1485.1637 Y560.6739
G1 X1474.8466 Y537.7306
G1 X1462.2978 Y515.9277
G1 X1447.6418 Y495.4816
G1 X1431.0241 Y476.5953
G1 X1412.6096 Y459.4563
G1 X1392.5810 Y444.2347
G1 X1371.1373 Y431.0816
G1 X1348.4912 Y420.1274
G1 X1324.8674 Y411.4810
G1 X1302.5000 Y405.7413
G1 X1301.7099 Y406.3542
G1 X1302.5000 Y405.7413
G1 Y345.1807
G1 X1197.5000
G1 Y405.7413
G1 X1198.2901 Y406.3542
G1 X1197.5000 Y405.7413
G1 X1175.1326 Y411.4810
G1 X1151.5089 Y420.1274
G1 X1128.8627 Y431.0816
G1 X1107.4190 Y444.2347
G1 X1087.3904 Y459.4563
G0 Z4.9900
G0 X1101.7929 Y504.4226 F500
G1 Z-5.0 F300
G1 X1102.5000 Y505.1297
G1 X1247.5000
G1 X1248.2071 Y504.4226
G1 X1247.5000 Y505.1297
G1 Y650.1297
G1 X1248.2071 Y650.8368
G1 X1247.5000 Y650.1297
G1 X1102.5000
G1 X1101.7929 Y650.8368
G1 X1102.5000 Y650.1297
G1 Y505.1297
G1 X1101.7929 Y504.4226
G0 Z4.9900
G0 X1287.7683 Y689.1199 F500
G1 Z-5.0 F300
G1 X1293.1873 Y684.3377
G1 X1299.0555 Y680.1187
G1 X1305.3145 Y676.5051
G1 X1311.9022 Y673.5326
G1 X1318.7533 Y671.2308
G1 X1325.7994 Y669.6226
G1 X1332.9707 Y668.7239
G1 X1340.1957 Y668.5437
G1 X1347.4029 Y669.0838
G1 X1354.5204 Y670.3388
G1 X1361.4777 Y672.2963
G1 X1368.2053 Y674.9367
G1 X1374.6368 Y678.2339
G1 X1380.7080 Y682.1551
G1 X1386.3585 Y686.6612
G1 X1391.5323 Y691.7076
G1 X1396.1780 Y697.2441
G1 X1400.2493 Y703.2156
G1 X1403.7058 Y709.5628
G1 X1406.5132 Y716.2227
G1 X1408.6434 Y723.1289
G1 X1410.0755 Y730.2129
G1 X1410.7982 Y737.4355
G1 X1410.8876 Y741.0180
G1 X1410.7982 Y744.6006
G1 X1410.0755 Y751.8232
G1 X1408.6434 Y758.9072
G1 X1406.5132 Y765.8134
G1 X1403.7058 Y772.4733
G1 X1400.2493 Y778.8204
G1 X1396.1780 Y784.7920
G1 X1391.5323 Y790.3285
G1 X1386.3585 Y795.3748
G1 X1380.7079 Y799.8810
G1 X1374.6368 Y803.8022
G1 X1368.2054 Y807.0994
G1 X1361.4776 Y809.7398
G1 X1354.5204 Y811.6973
G1 X1347.4029 Y812.9523
G1 X1340.1957 Y813.4924
G1 X1332.9707 Y813.3122
G1 X1325.7993 Y812.4135
G1 X1318.7533 Y810.8053
G1 X1311.9023 Y808.5035
G1 X1305.3145 Y805.5310
G1 X1299.0554 Y801.9173
G1 X1293.1873 Y797.6984
G1 X1287.7684 Y792.9162
G1 X1282.8525 Y787.6181
G1 X1278.4886 Y781.8570
G1 X1274.7200 Y775.6899
G1 X1271.5842 Y769.1784
G1 X1269.1123 Y762.3869
G1 X1267.3289 Y755.3831
G1 X1266.2517 Y748.2363
G1 X1265.8915 Y741.0180
G1 X1266.2517 Y733.7997
G1 X1267.3289 Y726.6530
G1 X1269.1123 Y719.6492
G1 X1271.5842 Y712.8577
G1 X1274.7200 Y706.3462
G1 X1278.4886 Y700.1791
G1 X1282.8525 Y694.4180
G1 X1287.7683 Y689.1199
G1 Z-9.9900 F250
G1 X1293.1873 Y684.3377 F300
G1 X1299.0555 Y680.1187
G1 X1305.3145 Y676.5051
G1 X1311.9022 Y673.5326
G1 X1318.7533 Y671.2308
G1 X1325.7994 Y669.6226
G1 X1332.9707 Y668.7239
G1 X1340.1957 Y668.5437
G1 X1347.4029 Y669.0838
G1 X1354.5204 Y670.3388
G1 X1361.4777 Y672.2963
G1 X1368.2053 Y674.9367
G1 X1374.6368 Y678.2339
G1 X1380.7080 Y682.1551
G1 X1386.3585 Y686.6612
G1 X1391.5323 Y691.7076
G1 X1396.1780 Y697.2441
G1 X1400.2493 Y703.2156
G1 X1403.7058 Y709.5628
G1 X1406.5132 Y716.2227
G1 X1408.6434 Y723.1289
G1 X1410.0755 Y730.2129
G1 X1410.7982 Y737.4355
G1 X1410.8876 Y741.0180
G1 X1410.7982 Y744.6006
G1 X1410.0755 Y751.8232
G1 X1408.6434 Y758.9072
G1 X1406.5132 Y765.8134
G1 X1403.7058 Y772.4733
G1 X1400.2493 Y778.8204
G1 X1396.1780 Y784.7920
G1 X1391.5323 Y790.3285
G1 X1386.3585 Y795.3748
G1 X1380.7079 Y799.8810
G1 X1374.6368 Y803.8022
G1 X1368.2054 Y807.0994
G1 X1361.4776 Y809.7398
G1 X1354.5204 Y811.6973
G1 X1347.4029 Y812.9523
G1 X1340.1957 Y813.4924
G1 X1332.9707 Y813.3122
G1 X1325.7993 Y812.4135
G1 X1318.7533 Y810.8053
G1 X1311.9023 Y808.5035
G1 X1305.3145 Y805.5310
G1 X1299.0554 Y801.9173
G1 X1293.1873 Y797.6984
G1 X1287.7684 Y792.9162
G1 X1282.8525 Y787.6181
G1 X1278.4886 Y781.8570
G1 X1274.7200 Y775.6899
G1 X1271.5842 Y769.1784
G1 X1269.1123 Y762.3869
G1 X1267.3289 Y755.3831
G1 X1266.2517 Y748.2363
G1 X1265.8915 Y741.0180
G1 X1266.2517 Y733.7997
G1 X1267.3289 Y726.6530
G1 X1269.1123 Y719.6492
G1 X1271.5842 Y712.8577
G1 X1274.7200 Y706.3462
G1 X1278.4886 Y700.1791
G1 X1282.8525 Y694.4180
G1 X1287.7683 Y689.1199
G0 Z4.9900
G0 X1248.2071 Y650.8368 F500
G1 Z-9.9900 F300
G1 X1247.5000 Y650.1297
G1 X1102.5000
G1 X1101.7929 Y650.8368
G1 X1102.5000 Y650.1297
G1 Y505.1297
G1 X1101.7929 Y504.4226
G1 X1102.5000 Y505.1297
G1 X1247.5000
G1 X1248.2071 Y504.4226
G1 X1247.5000 Y505.1297
G1 Y650.1297
G1 X1248.2071 Y650.8368
G0 Z4.9900
G0 X1198.2901 Y406.3542 F500
G1 Z-9.9900 F300
G1 X1197.5000 Y405.7413
G1 X1175.1326 Y411.4810
G1 X1151.5089 Y420.1274
G1 X1128.8627 Y431.0816
G1 X1107.4190 Y444.2347
G1 X1087.3904 Y459.4563
G1 X1068.9759 Y476.5953
G1 X1052.3582 Y495.4816
G1 X1037.7022 Y515.9277
G1 X1025.1534 Y537.7306
G1 X1014.8363 Y560.6739
G1 X1006.8534 Y584.5300
G1 X1001.2839 Y609.0621
G1 X998.1831 Y634.0265
G1 X997.5818 Y659.1757
G1 X999.4858 Y684.2598
G1 X1003.8764 Y709.0300
G1 X1010.7099 Y733.2404
G1 X1019.9186 Y756.6507
G1 X1031.4110 Y779.0285
G1 X1045.0730 Y800.1517
G1 X1060.7690 Y819.8106
G1 X1078.3433 Y837.8102
G1 X1097.6214 Y853.9717
G1 X1118.4120 Y868.1347
G1 X1140.5087 Y880.1587
G1 X1163.6921 Y889.9244
G1 X1187.7322 Y897.3347
G1 X1212.3904 Y902.3162
G1 X1237.4218 Y904.8193
G1 X1262.5782
G1 X1287.6096 Y902.3162
G1 X1312.2678 Y897.3347
G1 X1336.3079 Y889.9244
G1 X1359.4913 Y880.1587
G1 X1381.5880 Y868.1347
G1 X1402.3786 Y853.9717
G1 X1421.6567 Y837.8102
G1 X1439.2310 Y819.8106
G1 X1454.9271 Y800.1517
G1 X1468.5890 Y779.0285
G1 X1480.0814 Y756.6507
G1 X1489.2901 Y733.2404
G1 X1496.1236 Y709.0300
G1 X1500.5142 Y684.2598
G1 X1502.4182 Y659.1757
G1 X1501.8169 Y634.0265
G1 X1498.7161 Y609.0621
G1 X1493.1466 Y584.5300
G1 X1485.1637 Y560.6739
G1 X1474.8466 Y537.7306
G1 X1462.2978 Y515.9277
G1 X1447.6418 Y495.4816
G1 X1431.0241 Y476.5953
G1 X1412.6096 Y459.4563
G1 X1392.5810 Y444.2347
G1 X1371.1373 Y431.0816
G1 X1348.4912 Y420.1274
G1 X1324.8674 Y411.4810
G1 X1302.5000 Y405.7413
G1 X1301.7099 Y406.3542
G1 X1302.5000 Y405.7413
G1 Y345.1807
G1 X1197.5000
G1 Y405.7413
G1 X1198.2901 Y406.3542
G0 Z5.0
; ending outline op after 22 seconds
M30 ; program end