; Generated by Kiri:Moto 2.9.5
; Fri Jun 25 2021 14:39:35 GMT+0200 (Central European Summer Time)
; Bed left:0 right:2500 top:1250 bottom:0
; Target: Sadlow
; --- process ---
; processName = default
; outputOriginCenter = false
; outputInvertX = false
; outputInvertY = false
; camTabsWidth = 10
; camTabsHeight = 5
; camDepthFirst = false
; camEaseDown = false
; camOriginTop = false
; camTolerance = 0.5
; camZBottom = 0
; camZClearance = 5
; camStockX = 2500
; camStockY = 1250
; camStockZ = 10
; camConventional = true
; camRoughTool = 1000
; camRoughSpindle = 1000
; camRoughDown = 3
; camRoughOver = 0.5
; camRoughSpeed = 1000
; camRoughPlunge = 250
; camRoughStock = 1
; camRoughOn = false
; camOutlineTool = 1000
; camOutlineSpindle = 1000
; camOutlineDown = 5
; camContourOver = 0.5
; camOutlineSpeed = 300
; camOutlinePlunge = 250
; camOutlineOn = true
; camContourXOn = false
; camContourYOn = false
; camDrillTool = 1000
; camDrillSpindle = 1000
; camDrillDownSpeed = 250
; camDrillDown = 5
; camDrillDwell = 250
; camDrillLift = 2
; camDrillingOn = false
; camRoughVoid = false
; camContourTool = 1000
; camContourSpindle = 1000
; camContourSpeed = 300
; camContourAngle = 85
; camContourCurves = false
; camTraceTool = 1000
; camTraceSpeed = 250
; camZThru = 0
; camFastFeed = 500
; camFastFeedZ = 300
; camStockOffset = false
; camOutlineWide = false
; camRoughFlat = false
; camRoughTop = false
; camRoughIn = false
; camOutlineDogbone = true
; camOutlineOut = false
; camOutlineIn = false
; camContourIn = false
; camTraceType = follow
; camTracePlunge = 200
; camTabsDepth = 5
; camStockOn = false
; camLevelTool = 1000
; camLevelSpindle = 1000
; camLevelOver = 0.75
; camLevelSpeed = 1000
; camLevelDown = 0
; camOutlineOver = 0.4
; camOutlineOmitThru = false
; camTraceSpindle = 1000
; camTraceOver = 0.5
; camFlipAxis = X
; camFlipOther = 
; camTabsMidline = false
; camZAnchor = bottom
; camZOffset = -10
; camStockClipTo = false
; op2 = 
; camTraceDown = 0
; camTraceLines = true
; camRegisterSpeed = 1000
; camExpertFast = false
; --- tools ---
; tool=1 flute=0.25 len=0 metric=false
G21 ; set units to MM (required)
G90 ; absolute position mode (required)
; starting outline op
M6 T1 ; change tool to 'end 1/4'
;G0 X1250 Y255 F500
G0 Z15.0 F300
G0 X1086.9552 Y458.9393 F500
G1 Z5.0 F250
G1 X1107.0373 Y443.6769 F300
G1 X1128.5385 Y430.4886
G1 X1151.2452 Y419.5051
G1 X1174.9322 Y410.8356
G1 X1196.8250 Y405.2176
G1 X1197.8284 Y405.9961
G1 X1196.8250 Y405.2176
G1 Y344.5057
G1 X1303.1750
G1 Y405.2176
G1 X1302.1716 Y405.9961
G1 X1303.1750 Y405.2176
G1 X1325.0678 Y410.8356
G1 X1348.7548 Y419.5051
G1 X1371.4615 Y430.4886
G1 X1392.9627 Y443.6769
G1 X1413.0448 Y458.9393
G1 X1431.5086 Y476.1241
G1 X1448.1708 Y495.0610
G1 X1462.8661 Y515.5618
G1 X1475.4485 Y537.4230
G1 X1485.7931 Y560.4278
G1 X1493.7974 Y584.3478
G1 X1499.3818 Y608.9455
G1 X1502.4909 Y633.9768
G1 X1503.0939 Y659.1932
G1 X1501.1847 Y684.3445
G1 X1496.7824 Y709.1810
G1 X1489.9305 Y733.4562
G1 X1480.6972 Y756.9291
G1 X1469.1741 Y779.3668
G1 X1455.4756 Y800.5465
G1 X1439.7375 Y820.2581
G1 X1422.1161 Y838.3058
G1 X1402.7864 Y854.5106
G1 X1381.9402 Y868.7115
G1 X1359.7844 Y880.7677
G1 X1336.5389 Y890.5595
G1 X1312.4344 Y897.9897
G1 X1287.7103 Y902.9845
G1 X1262.6118 Y905.4943
G1 X1237.3882
G1 X1212.2897 Y902.9845
G1 X1187.5656 Y897.9897
G1 X1163.4611 Y890.5595
G1 X1140.2156 Y880.7677
G1 X1118.0598 Y868.7115
G1 X1097.2136 Y854.5106
G1 X1077.8839 Y838.3058
G1 X1060.2625 Y820.2581
G1 X1044.5244 Y800.5465
G1 X1030.8259 Y779.3668
G1 X1019.3028 Y756.9291
G1 X1010.0695 Y733.4562
G1 X1003.2176 Y709.1810
G1 X998.8153 Y684.3445
G1 X996.9062 Y659.1932
G1 X997.5091 Y633.9768
G1 X1000.6182 Y608.9455
G1 X1006.2026 Y584.3478
G1 X1014.2069 Y560.4278
G1 X1024.5515 Y537.4230
G1 X1037.1340 Y515.5618
G1 X1051.8292 Y495.0610
G1 X1068.4914 Y476.1241
G1 X1086.9552 Y458.9393
G0 Z14.9900
G0 X1102.2770 Y504.9067 F500
G1 Z5.0 F300
G1 X1103.1750 Y505.8047
G1 Y649.4547
G1 X1102.2770 Y650.3527
G1 X1103.1750 Y649.4547
G1 X1246.8250
G1 X1247.7230 Y650.3527
G1 X1246.8250 Y649.4547
G1 Y505.8047
G1 X1247.7230 Y504.9067
G1 X1246.8250 Y505.8047
G1 X1103.1750
G1 X1102.2770 Y504.9067
G0 Z14.9900
G0 X1288.2403 Y689.6037 F500
G1 Z5.0 F300
G1 X1283.3703 Y694.8524
G1 X1279.0470 Y700.5598
G1 X1275.3136 Y706.6693
G1 X1272.2069 Y713.1203
G1 X1269.7581 Y719.8484
G1 X1267.9913 Y726.7870
G1 X1266.9242 Y733.8670
G1 X1266.5673 Y741.0180
G1 X1266.9242 Y748.1691
G1 X1267.9913 Y755.2491
G1 X1269.7581 Y762.1877
G1 X1272.2069 Y768.9158
G1 X1275.3136 Y775.3667
G1 X1279.0470 Y781.4763
G1 X1283.3702 Y787.1837
G1 X1288.2403 Y792.4323
G1 X1293.6087 Y797.1700
G1 X1299.4221 Y801.3496
G1 X1305.6228 Y804.9296
G1 X1312.1492 Y807.8744
G1 X1318.9363 Y810.1547
G1 X1325.9167 Y811.7479
G1 X1333.0212 Y812.6383
G1 X1340.1789 Y812.8168
G1 X1347.3188 Y812.2817
G1 X1354.3701 Y811.0384
G1 X1361.2624 Y809.0992
G1 X1367.9275 Y806.4833
G1 X1374.2989 Y803.2169
G1 X1380.3134 Y799.3323
G1 X1385.9113 Y794.8681
G1 X1391.0369 Y789.8688
G1 X1395.6393 Y784.3839
G1 X1399.6726 Y778.4681
G1 X1403.0969 Y772.1800
G1 X1405.8780 Y765.5824
G1 X1407.9885 Y758.7404
G1 X1409.4072 Y751.7224
G1 X1410.1241 Y744.5586
G1 X1410.2124 Y741.0180
G1 X1410.1241 Y737.4775
G1 X1409.4072 Y730.3137
G1 X1407.9885 Y723.2956
G1 X1405.8781 Y716.4538
G1 X1403.0969 Y709.8561
G1 X1399.6726 Y703.5680
G1 X1395.6392 Y697.6522
G1 X1391.0369 Y692.1673
G1 X1385.9113 Y687.1679
G1 X1380.3135 Y682.7038
G1 X1374.2988 Y678.8192
G1 X1367.9274 Y675.5527
G1 X1361.2624 Y672.9369
G1 X1354.3700 Y670.9977
G1 X1347.3189 Y669.7544
G1 X1340.1789 Y669.2193
G1 X1333.0212 Y669.3978
G1 X1325.9168 Y670.2881
G1 X1318.9363 Y671.8814
G1 X1312.1492 Y674.1617
G1 X1305.6228 Y677.1065
G1 X1299.4221 Y680.6865
G1 X1293.6086 Y684.8661
G1 X1288.2403 Y689.6037
G1 Z0.0100 F250
G1 X1283.3703 Y694.8524 F300
G1 X1279.0470 Y700.5598
G1 X1275.3136 Y706.6693
G1 X1272.2069 Y713.1203
G1 X1269.7581 Y719.8484
G1 X1267.9913 Y726.7870
G1 X1266.9242 Y733.8670
G1 X1266.5673 Y741.0180
G1 X1266.9242 Y748.1691
G1 X1267.9913 Y755.2491
G1 X1269.7581 Y762.1877
G1 X1272.2069 Y768.9158
G1 X1275.3136 Y775.3667
G1 X1279.0470 Y781.4763
G1 X1283.3702 Y787.1837
G1 X1288.2403 Y792.4323
G1 X1293.6087 Y797.1700
G1 X1299.4221 Y801.3496
G1 X1305.6228 Y804.9296
G1 X1312.1492 Y807.8744
G1 X1318.9363 Y810.1547
G1 X1325.9167 Y811.7479
G1 X1333.0212 Y812.6383
G1 X1340.1789 Y812.8168
G1 X1347.3188 Y812.2817
G1 X1354.3701 Y811.0384
G1 X1361.2624 Y809.0992
G1 X1367.9275 Y806.4833
G1 X1374.2989 Y803.2169
G1 X1380.3134 Y799.3323
G1 X1385.9113 Y794.8681
G1 X1391.0369 Y789.8688
G1 X1395.6393 Y784.3839
G1 X1399.6726 Y778.4681
G1 X1403.0969 Y772.1800
G1 X1405.8780 Y765.5824
G1 X1407.9885 Y758.7404
G1 X1409.4072 Y751.7224
G1 X1410.1241 Y744.5586
G1 X1410.2124 Y741.0180
G1 X1410.1241 Y737.4775
G1 X1409.4072 Y730.3137
G1 X1407.9885 Y723.2956
G1 X1405.8781 Y716.4538
G1 X1403.0969 Y709.8561
G1 X1399.6726 Y703.5680
G1 X1395.6392 Y697.6522
G1 X1391.0369 Y692.1673
G1 X1385.9113 Y687.1679
G1 X1380.3135 Y682.7038
G1 X1374.2988 Y678.8192
G1 X1367.9274 Y675.5527
G1 X1361.2624 Y672.9369
G1 X1354.3700 Y670.9977
G1 X1347.3189 Y669.7544
G1 X1340.1789 Y669.2193
G1 X1333.0212 Y669.3978
G1 X1325.9168 Y670.2881
G1 X1318.9363 Y671.8814
G1 X1312.1492 Y674.1617
G1 X1305.6228 Y677.1065
G1 X1299.4221 Y680.6865
G1 X1293.6086 Y684.8661
G1 X1288.2403 Y689.6037
G0 Z14.9900
G0 X1247.7230 Y650.3527 F500
G1 Z0.0100 F300
G1 X1246.8250 Y649.4547
G1 Y505.8047
G1 X1247.7230 Y504.9067
G1 X1246.8250 Y505.8047
G1 X1103.1750
G1 X1102.2770 Y504.9067
G1 X1103.1750 Y505.8047
G1 Y649.4547
G1 X1102.2770 Y650.3527
G1 X1103.1750 Y649.4547
G1 X1246.8250
G1 X1247.7230 Y650.3527
G0 Z14.9900
G0 X1197.8284 Y405.9961 F500
G1 Z0.0100 F300
G1 X1196.8250 Y405.2176
G1 Y344.5057
G1 X1303.1750
G1 Y405.2176
G1 X1302.1716 Y405.9961
G1 X1303.1750 Y405.2176
G1 X1325.0678 Y410.8356
G1 X1348.7548 Y419.5051
G1 X1371.4615 Y430.4886
G1 X1392.9627 Y443.6769
G1 X1413.0448 Y458.9393
G1 X1431.5086 Y476.1241
G1 X1448.1708 Y495.0610
G1 X1462.8661 Y515.5618
G1 X1475.4485 Y537.4230
G1 X1485.7931 Y560.4278
G1 X1493.7974 Y584.3478
G1 X1499.3818 Y608.9455
G1 X1502.4909 Y633.9768
G1 X1503.0939 Y659.1932
G1 X1501.1847 Y684.3445
G1 X1496.7824 Y709.1810
G1 X1489.9305 Y733.4562
G1 X1480.6972 Y756.9291
G1 X1469.1741 Y779.3668
G1 X1455.4756 Y800.5465
G1 X1439.7375 Y820.2581
G1 X1422.1161 Y838.3058
G1 X1402.7864 Y854.5106
G1 X1381.9402 Y868.7115
G1 X1359.7844 Y880.7677
G1 X1336.5389 Y890.5595
G1 X1312.4344 Y897.9897
G1 X1287.7103 Y902.9845
G1 X1262.6118 Y905.4943
G1 X1237.3882
G1 X1212.2897 Y902.9845
G1 X1187.5656 Y897.9897
G1 X1163.4611 Y890.5595
G1 X1140.2156 Y880.7677
G1 X1118.0598 Y868.7115
G1 X1097.2136 Y854.5106
G1 X1077.8839 Y838.3058
G1 X1060.2625 Y820.2581
G1 X1044.5244 Y800.5465
G1 X1030.8259 Y779.3668
G1 X1019.3028 Y756.9291
G1 X1010.0695 Y733.4562
G1 X1003.2176 Y709.1810
G1 X998.8153 Y684.3445
G1 X996.9062 Y659.1932
G1 X997.5091 Y633.9768
G1 X1000.6182 Y608.9455
G1 X1006.2026 Y584.3478
G1 X1014.2069 Y560.4278
G1 X1024.5515 Y537.4230
G1 X1037.1340 Y515.5618
G1 X1051.8292 Y495.0610
G1 X1068.4914 Y476.1241
G1 X1086.9552 Y458.9393
G1 X1107.0373 Y443.6769
G1 X1128.5385 Y430.4886
G1 X1151.2452 Y419.5051
G1 X1174.9322 Y410.8356
G1 X1196.8250 Y405.2176
G1 X1197.8284 Y405.9961
G0 Z15.0
; ending outline op after 22 seconds
M30 ; program end