; Generated by Kiri:Moto 3.0.2
; Sun Dec 19 2021 13:05:21 GMT+0100 (Central European Standard Time)
; Bed left:0 right:2500 top:1250 bottom:0
; Target: MASLOW
; --- process ---
; processName = default
; outputOriginCenter = true
; outputInvertX = false
; outputInvertY = false
; camTabsWidth = 10
; camTabsHeight = 5
; camDepthFirst = false
; camEaseDown = false
; camOriginTop = true
; camTolerance = 0.5
; camZBottom = 0
; camZClearance = 5
; camStockX = 2500
; camStockY = 1250
; camStockZ = 10
; camConventional = false
; camRoughTool = 1000
; camRoughSpindle = 1000
; camRoughDown = 5
; camRoughOver = 0.5
; camRoughSpeed = 500
; camRoughPlunge = 300
; camRoughStock = 0
; camRoughOn = false
; camOutlineTool = 1000
; camOutlineSpindle = 1000
; camOutlineDown = 3.4
; camContourOver = 0.5
; camOutlineSpeed = 300
; camOutlinePlunge = 250
; camOutlineOn = true
; camContourXOn = false
; camContourYOn = false
; camDrillTool = 1000
; camDrillSpindle = 1000
; camDrillDownSpeed = 250
; camDrillDown = 5
; camDrillDwell = 250
; camDrillLift = 2
; camDrillingOn = false
; camRoughVoid = false
; camContourTool = 1000
; camContourSpindle = 1000
; camContourSpeed = 300
; camContourAngle = 85
; camContourCurves = false
; camTraceTool = 1000
; camTraceSpeed = 250
; camZThru = 0
; camFastFeed = 500
; camFastFeedZ = 50
; camStockOffset = false
; camOutlineWide = false
; camRoughFlat = false
; camRoughTop = false
; camRoughIn = false
; camOutlineDogbone = true
; camOutlineOut = false
; camOutlineIn = false
; camContourIn = false
; camTraceType = follow
; camTracePlunge = 200
; camTabsDepth = 5
; camStockOn = false
; camLevelTool = 1000
; camLevelSpindle = 1000
; camLevelOver = 0.75
; camLevelSpeed = 1000
; camLevelDown = 0
; camOutlineOver = 0.4
; camOutlineOmitThru = false
; camTraceSpindle = 1000
; camTraceOver = 0.5
; camFlipAxis = X
; camFlipOther = 
; camTabsMidline = false
; camZAnchor = top
; camZOffset = 0
; camStockClipTo = false
; camTraceDown = 0
; camTraceLines = true
; camRegisterSpeed = 1000
; camExpertFast = false
; camTrueShadow = false
; --- tools ---
; tool=1 flute=5 len=20 metric=true
G21 ; set units to MM (required)
G90 ; absolute position mode (required)
; starting rough op
M6 T1 ; change tool to 'end 1/4'
G0 Z5.0 F50
G0 X525.4056 Y-342.9671 F500
G1 Z-4.9900 F50
G1 X525.2550 Y-342.9078 F500
G1 X525.2152 Y-342.2869
G1 X523.7768 Y-342.3251
G1 X521.9565 Y-341.6076
G1 X521.3365 Y-342.3899
G1 X458.6112 Y-344.0542
G1 X457.9008 Y-331.9761
G1 X459.5507 Y-331.8379
G1 X458.6617 Y-316.5370
G1 X457.0022 Y-316.6956
G1 X456.4692 Y-307.6336
G1 X453.1044 Y-269.7379
G1 X448.4796 Y-232.3349
G1 X442.4188 Y-195.0339
G1 X434.7471 Y-157.4450
G1 X425.2899 Y-119.1780
G1 X413.8732 Y-79.8424
G1 X400.3233 Y-39.0469
G1 X384.4662 Y3.6008
G1 X366.1282 Y48.4938
G1 X345.1351 Y96.0260
G1 X320.2545 Y148.8369
G1 X310.4442 Y144.1771
G1 X313.9170 Y136.7023
G1 X305.8431 Y133.1699
G1 X302.2956 Y126.4959
G1 X297.0221 Y112.6350
G1 X289.8631 Y91.5169
G1 X280.9798 Y63.5707
G1 X270.5666 Y29.3030
G1 X258.8218 Y-10.7683
G1 X245.9454 Y-56.1215
G1 X232.1378 Y-106.2343
G1 X217.5990 Y-160.5835
G1 X202.5297 Y-218.6457
G1 X187.1305 Y-279.8976
G1 X171.5650 Y-343.9675
G1 X166.5593 Y-344.4457
G1 X167.2708 Y-348.7154
G1 X149.7268 Y-349.8596
G1 X149.7637 Y-348.8158
G1 X133.4890 Y-349.3407
G1 X132.1831 Y-352.7279
G1 X131.9449 Y-353.1613
G1 X130.6501 Y-356.0076
G1 X129.4260 Y-359.2662
G1 X128.6577 Y-361.8717
G1 X108.1146 Y-415.1551
G1 X107.4163 Y-421.4727
G1 X107.7707 Y-426.4802
G1 X109.1729 Y-430.4722
G1 X111.6460 Y-433.3599
G1 X114.9090 Y-434.9188
G1 X118.4821 Y-435.2442
G1 X122.1234 Y-434.6379
G1 X125.7597 Y-433.3248
G1 X129.3279 Y-431.4505
G1 X132.7417 Y-429.1279
G1 X135.8982 Y-426.4571
G1 X138.7115 Y-423.5005
G1 X140.6972 Y-420.6355
G1 X142.3841 Y-417.7265
G1 X143.8349 Y-414.7099
G1 X145.0626 Y-411.5959
G1 X146.0807 Y-408.3929
G1 X146.9031 Y-405.1094
G1 X147.5442 Y-401.7525
G1 X148.0179 Y-398.3287
G1 X148.3384 Y-394.8439
G1 X148.5189 Y-391.3039
G1 X148.5733 Y-387.7141
G1 X148.5714 Y-387.5968
G1 X176.4223 Y-390.6939
G1 X207.3387 Y-393.5473
G1 X239.2074 Y-395.9857
G1 X271.4959 Y-398.0139
G1 X303.6714 Y-399.6360
G1 X314.3416 Y-400.0490
G1 X314.6350 Y-404.7140
G1 X315.7017 Y-411.1892
G1 X317.3465 Y-417.4514
G1 X319.5004 Y-423.4779
G1 X322.0952 Y-429.2479
G1 X325.0638 Y-434.7416
G1 X328.3402 Y-439.9395
G1 X331.8594 Y-444.8226
G1 X335.5570 Y-449.3716
G1 X339.3696 Y-453.5675
G1 X343.2347 Y-457.3906
G1 X349.0439 Y-462.5603
G1 X395.6652 Y-402.1105
G1 X420.5844 Y-402.1480
G1 X444.2056 Y-401.8020
G1 X464.5279 Y-401.0733
G1 X483.3382 Y-399.8085
G1 X483.3352 Y-399.6101
G1 X491.9288 Y-398.8240
G1 X500.7324 Y-397.1781
G1 X507.8062 Y-394.8327
G1 X513.3631 Y-391.7290
G1 X517.5373 Y-387.8386
G1 X520.4369 Y-383.2446
G1 X522.2687 Y-378.0922
G1 X523.3262 Y-372.4605
G1 X523.9012 Y-366.3491
G1 X524.2551 Y-359.7313
G1 X524.6282 Y-352.5812
G1 X525.0682 Y-347.1392
G1 X525.5236 Y-347.0928
G1 X525.3238 Y-343.9788
G1 X525.4056 Y-342.9671
G0 Z4.9900 F50
G0 X515.8509 Y-349.3111 F500
G1 Z-4.9900 F50
G1 X479.6953 Y-394.9299 F500
G1 X149.6709 Y-382.5269
G1 Y-365.4207
G1 X194.7330 Y-364.6679
G1 X238.9869 Y-363.7708
G1 X280.1267 Y-362.7668
G1 X318.2257 Y-361.6533
G1 X353.3570 Y-360.4276
G1 X385.5939 Y-359.0873
G1 X415.0100 Y-357.6296
G1 X441.6792 Y-356.0519
G1 X465.6755 Y-354.3513
G1 X487.0738 Y-352.5249
G1 X505.9497 Y-350.5695
G1 X515.8509 Y-349.3111
G0 Z4.9900 F50
G0 X442.6302 Y-344.4783 F500
G1 Z-4.9900 F50
G1 X439.5592 Y-343.1366 F500
G1 X439.2820 Y-344.5571
G1 X410.8680 Y-345.3111
G1 X411.8456 Y-343.4120
G1 X410.8429 Y-342.7867
G1 X411.6289 Y-339.3196
G1 X426.9019 Y-337.6067
G1 X426.8836 Y-337.5987
G1 X405.7435 Y-339.9696
G1 X405.3327 Y-340.2501
G1 X404.7349 Y-340.0827
G1 X401.9314 Y-340.3971
G1 X402.2205 Y-338.9995
G1 X401.7716 Y-338.6649
G1 X400.9801 Y-337.4479
G1 X400.7584 Y-336.7624
G1 X323.0902 Y-343.2679
G1 X323.0931 Y-343.2777
G1 X400.5407 Y-336.7906
G1 X402.1541 Y-339.2714
G1 X401.0353 Y-344.6796
G1 X401.6339 Y-344.5925
G1 X403.4554 Y-344.2416
G1 X404.9022 Y-343.8535
G1 X405.8757 Y-343.4663
G1 X406.2614 Y-343.2144
G1 X407.9249 Y-340.9790
G1 X411.8325 Y-343.4156
G1 X410.8515 Y-345.3215
G1 X442.6302 Y-344.4783
G0 Z4.9900 F50
G0 X444.9057 Y-317.8513 F500
G1 Z-4.9900 F50
G1 X176.9218 Y-343.4556 F500
G1 X201.6180 Y-260.4763
G1 X229.8000 Y-275.0766
G1 X233.4821 Y-266.7919
G1 X203.2542 Y-254.9787
G1 X224.8825 Y-182.3074
G1 X256.0606 Y-196.3376
G1 X259.7276 Y-188.0871
G1 X226.5776 Y-176.6120
G1 X249.0235 Y-101.1939
G1 X283.2016 Y-115.4095
G1 X286.1750 Y-107.4786
G1 X250.7024 Y-95.5525
G1 X271.8179 Y-24.6044
G1 X294.7629 Y-34.0989
G1 X297.7565 Y-26.1168
G1 X273.6041 Y-18.6029
G1 X295.6318 Y55.4103
G1 X311.6811 Y47.6216
G1 X315.8576 Y54.9299
G1 X297.4655 Y61.5715
G1 X317.5186 Y128.9500
G1 X333.4310 Y94.7001
G1 X352.9138 Y50.6595
G1 X370.0998 Y9.1951
G1 X385.1448 Y-30.2907
G1 X398.2049 Y-68.3957
G1 X409.4374 Y-105.7203
G1 X418.9985 Y-142.8655
G1 X427.0449 Y-180.4340
G1 X433.7318 Y-219.0281
G1 X439.2138 Y-259.2492
G1 X443.6448 Y-301.6972
G1 X444.9057 Y-317.8513
G0 Z4.9900 F50
G0 X409.2345 Y-314.3517 F500
G1 Z-4.9900 F50
G1 X401.9932 Y-278.1463 F500
G1 X290.6181 Y-308.8148
G1 X294.9592 Y-324.0087
G1 X409.2345 Y-314.3517
G0 Z4.9900 F50
G0 X399.8466 Y-344.8525 F500
G1 Z-4.9900 F50
G1 X397.1417 Y-345.1652 F500
G1 X394.3667 Y-345.4331
G1 X389.0524 Y-345.8916
G1 X386.1757 Y-346.1471
G1 X383.3641 Y-346.4244
G1 X324.7680 Y-348.9726
G1 X324.7709 Y-348.9825
G1 X383.3648 Y-346.4344
G1 X386.1763 Y-346.1571
G1 X389.0540 Y-345.9015
G1 X391.8747 Y-345.6616
G1 X394.5797 Y-345.4244
G1 X397.1416 Y-345.1752
G1 X399.5101 Y-344.9015
G1 X399.8466 Y-344.8525
G0 Z4.9900 F50
G0 X317.6373 Y-343.7246 F500
G1 Z-4.9900 F50
G1 X232.3435 Y-350.8688 F500
G1 X231.8041 Y-353.0255
G1 X276.5726 Y-351.0786
G1 X276.5653 Y-350.9114
G1 X289.7345 Y-350.5062
G1 X315.3705 Y-349.3913
G1 X315.3746 Y-349.3812
G1 X301.9639 Y-349.9644
G1 X301.6528 Y-345.0735
G1 X317.6332 Y-343.7350
G1 X317.6373 Y-343.7246
G0 Z4.9900 F50
G0 X203.5023 Y-354.2563 F500
G1 Z-4.9900 F50
G1 X203.0182 Y-354.2040 F500
G1 X203.1620 Y-354.2711
G1 X203.5023 Y-354.2563
G0 Z5.0 F50
; ending rough op after 15 seconds
M30 ; program end