; Generated by Kiri:Moto 3.0.0
; Thu Nov 18 2021 14:59:05 GMT+0100 (Central European Standard Time)
; Bed left:0 right:2500 top:1250 bottom:0
; Target: Sadlow
; --- process ---
; processName = default
; outputOriginCenter = true
; outputInvertX = false
; outputInvertY = false
; camTabsWidth = 10
; camTabsHeight = 5
; camDepthFirst = false
; camEaseDown = false
; camOriginTop = true
; camTolerance = 0.5
; camZBottom = 0
; camZClearance = 5
; camStockX = 2500
; camStockY = 1250
; camStockZ = 10
; camConventional = false
; camRoughTool = 1000
; camRoughSpindle = 1000
; camRoughDown = 5
; camRoughOver = 0.5
; camRoughSpeed = 500
; camRoughPlunge = 300
; camRoughStock = 0
; camRoughOn = false
; camOutlineTool = 1000
; camOutlineSpindle = 1000
; camOutlineDown = 3.4
; camContourOver = 0.5
; camOutlineSpeed = 300
; camOutlinePlunge = 250
; camOutlineOn = true
; camContourXOn = false
; camContourYOn = false
; camDrillTool = 1000
; camDrillSpindle = 1000
; camDrillDownSpeed = 250
; camDrillDown = 5
; camDrillDwell = 250
; camDrillLift = 2
; camDrillingOn = false
; camRoughVoid = false
; camContourTool = 1000
; camContourSpindle = 1000
; camContourSpeed = 300
; camContourAngle = 85
; camContourCurves = false
; camTraceTool = 1000
; camTraceSpeed = 250
; camZThru = 0
; camFastFeed = 500
; camFastFeedZ = 50
; camStockOffset = false
; camOutlineWide = false
; camRoughFlat = false
; camRoughTop = false
; camRoughIn = false
; camOutlineDogbone = true
; camOutlineOut = false
; camOutlineIn = false
; camContourIn = false
; camTraceType = follow
; camTracePlunge = 200
; camTabsDepth = 5
; camStockOn = false
; camLevelTool = 1000
; camLevelSpindle = 1000
; camLevelOver = 0.75
; camLevelSpeed = 1000
; camLevelDown = 0
; camOutlineOver = 0.4
; camOutlineOmitThru = false
; camTraceSpindle = 1000
; camTraceOver = 0.5
; camFlipAxis = X
; camFlipOther = 
; camTabsMidline = false
; camZAnchor = top
; camZOffset = 0
; camStockClipTo = false
; camTraceDown = 0
; camTraceLines = true
; camRegisterSpeed = 1000
; camExpertFast = false
; camTrueShadow = false
; --- tools ---
; tool=1 flute=5 len=20 metric=true
G21 ; set units to MM (required)
G90 ; absolute position mode (required)
; starting rough op
M6 T1 ; change tool to 'end 1/4'
G0 Z5.0 F50
G0 X-2.5008 Y24.9747 F500
G1 Z-5.0 F50
G1 X-67.5008 F500
G1 Y-40.0253
G1 X-2.5008
G1 Y24.9747
G0 Z4.9900 F50
G0 X37.7676 Y63.9649 F500
G1 Z-5.0 F50
G1 X43.1865 Y59.1827 F500
G1 X49.0547 Y54.9638
G1 X55.3137 Y51.3501
G1 X61.9015 Y48.3776
G1 X68.7525 Y46.0758
G1 X75.7986 Y44.4675
G1 X82.9699 Y43.5689
G1 X90.1950 Y43.3887
G1 X97.4021 Y43.9288
G1 X104.5197 Y45.1838
G1 X111.4769 Y47.1413
G1 X118.2046 Y49.7817
G1 X124.6360 Y53.0789
G1 X130.7072 Y57.0
G1 X136.3578 Y61.5063
G1 X141.5316 Y66.5526
G1 X146.1772 Y72.0891
G1 X150.2485 Y78.0606
G1 X153.7050 Y84.4078
G1 X156.5124 Y91.0677
G1 X158.6427 Y97.9739
G1 X160.0747 Y105.0579
G1 X160.7975 Y112.2805
G1 X160.8868 Y115.8630
G1 X160.7975 Y119.4456
G1 X160.0747 Y126.6682
G1 X158.6427 Y133.7522
G1 X156.5124 Y140.6584
G1 X153.7050 Y147.3182
G1 X150.2485 Y153.6655
G1 X146.1772 Y159.6370
G1 X141.5316 Y165.1734
G1 X136.3578 Y170.2198
G1 X130.7071 Y174.7260
G1 X124.6361 Y178.6472
G1 X118.2046 Y181.9444
G1 X111.4768 Y184.5848
G1 X104.5197 Y186.5423
G1 X97.4021 Y187.7973
G1 X90.1950 Y188.3374
G1 X82.9699 Y188.1572
G1 X75.7986 Y187.2585
G1 X68.7525 Y185.6503
G1 X61.9015 Y183.3485
G1 X55.3138 Y180.3760
G1 X49.0547 Y176.7623
G1 X43.1865 Y172.5433
G1 X37.7676 Y167.7612
G1 X32.8517 Y162.4631
G1 X28.4879 Y156.7020
G1 X24.7192 Y150.5349
G1 X21.5834 Y144.0234
G1 X19.1115 Y137.2319
G1 X17.3281 Y130.2281
G1 X16.2510 Y123.0813
G1 X15.8907 Y115.8630
G1 X16.2510 Y108.6447
G1 X17.3282 Y101.4980
G1 X19.1115 Y94.4942
G1 X21.5834 Y87.7027
G1 X24.7192 Y81.1912
G1 X28.4879 Y75.0240
G1 X32.8517 Y69.2629
G1 X37.7676 Y63.9649
G0 Z4.9900 F50
G0 X93.3483 Y-30.4686 F500
G1 Z-5.0 F50
G1 X94.7305 Y-29.6713 F500
G1 X95.9900 Y-29.0879
G1 X97.1533 Y-28.6710
G1 X98.2384 Y-28.3890
G1 X99.3980 Y-28.2023
G1 X100.5850 Y-28.1280
G1 X100.6615 Y-28.1273
G1 X101.9048 Y-28.1830
G1 X103.1679 Y-28.3549
G1 X104.5563 Y-28.6702
G1 X106.1134 Y-29.1683
G1 X107.8981 Y-29.9103
G1 X109.9819 Y-30.9859
G1 X113.0315 Y-32.9172
G1 X117.1541 Y-36.1007
G1 X123.3112 Y-41.8258
G1 X137.4762 Y-57.7047
G1 X159.0053 Y-82.7193
G1 X162.7251 Y-86.4561
G1 X167.9031 Y-91.0996
G1 X171.8436 Y-94.0980
G1 X175.0441 Y-96.1317
G1 X177.8187 Y-97.5689
G1 X180.3618 Y-98.6103
G1 X182.7274 Y-99.3393
G1 X184.9689 Y-99.8150
G1 X187.3232 Y-100.0859
G1 X189.5271 Y-100.1237
G1 X191.7087 Y-99.9523
G1 X193.8560 Y-99.5761
G1 X195.9998 Y-98.9904
G1 X198.1717 Y-98.1768
G1 X200.4042 Y-97.1022
G1 X202.7330 Y-95.7148
G1 X205.1993 Y-93.9375
G1 X207.8344 Y-91.6724
G1 X209.4180 Y-90.1237
G1 X212.5634 Y-86.6112
G1 X216.0318 Y-82.0294
G1 X220.8274 Y-74.3857
G1 X226.7048 Y-62.7554
G1 X234.3968 Y-43.2797
G1 X244.7233 Y-8.0234
G1 X252.5127 Y27.2628
G1 X251.2891 Y52.1970
G1 X247.6612 Y76.6817
G1 X241.6535 Y100.6935
G1 X233.3237 Y124.0018
G1 X222.7518 Y146.3825
G1 X210.0394 Y167.6207
G1 X195.3087 Y187.5121
G1 X178.7013 Y205.8657
G1 X160.3766 Y222.5051
G1 X140.5109 Y237.2704
G1 X119.2950 Y250.0198
G1 X96.9327 Y260.6306
G1 X73.6389 Y269.0010
G1 X49.6376 Y275.0505
G1 X25.1592 Y278.7211
G1 X0.4391 Y279.9773
G1 X-24.2852 Y278.8072
G1 X-48.7762 Y275.2220
G1 X-72.7985 Y269.2561
G1 X-96.1213 Y260.9669
G1 X-118.5204 Y250.4340
G1 X-139.7806 Y237.7587
G1 X-159.6977 Y223.0627
G1 X-178.0802 Y206.4872
G1 X-194.7515 Y188.1916
G1 X-209.5514 Y168.3516
G1 X-222.3377 Y147.1579
G1 X-232.9874 Y124.8141
G1 X-241.3984 Y101.5350
G1 X-247.4898 Y77.5442
G1 X-251.2029 Y53.0723
G1 X-252.5022 Y28.3544
G1 X-251.3752 Y3.6281
G1 X-247.8326 Y-20.8691
G1 X-241.9086 Y-44.9017
G1 X-233.6601 Y-68.2389
G1 X-223.1662 Y-90.6563
G1 X-210.5279 Y-111.9386
G1 X-195.8667 Y-131.8813
G1 X-179.3232 Y-150.2926
G1 X-161.0567 Y-166.9957
G1 X-141.2425 Y-181.8302
G1 X-120.0711 Y-194.6534
G1 X-97.7459 Y-205.3421
G1 X-74.4815 Y-213.7936
G1 X-52.5008 Y-219.4154
G1 Y-279.9743
G1 X52.4992
G1 Y-219.4282
G1 X71.3979 Y-214.7228
G1 X91.7767 Y-207.7577
G1 X111.4879 Y-199.0814
G1 X130.4415 Y-188.7278
G1 X132.3648 Y-187.3140
G1 X133.6183 Y-186.2137
G1 X134.5175 Y-185.2736
G1 X135.1838 Y-184.4414
G1 X135.6865 Y-183.6843
G1 X136.0618 Y-182.9942
G1 X136.3533 Y-182.3235
G1 X136.5698 Y-181.6704
G1 X136.7287 Y-180.9771
G1 X136.8145 Y-180.3017
G1 X136.8338 Y-179.6446
G1 X136.7914 Y-178.9973
G1 X136.6882 Y-178.3510
G1 X136.5166 Y-177.6825
G1 X136.2808 Y-177.0210
G1 X135.9684 Y-176.3396
G1 X135.5632 Y-175.6246
G1 X135.0403 Y-174.8592
G1 X134.3546 Y-174.0130
G1 X133.2882 Y-172.9057
G1 X131.5786 Y-171.4273
G1 X128.5432 Y-169.2506
G1 X118.6766 Y-163.4711
G1 X105.8431 Y-156.1466
G1 X97.8489 Y-150.8870
G1 X92.1047 Y-146.4223
G1 X87.6979 Y-142.3567
G1 X84.2957 Y-138.6162
G1 X81.5511 Y-134.9929
G1 X79.0038 Y-130.8964
G1 X76.7357 Y-126.3913
G1 X74.5278 Y-120.7875
G1 X72.7825 Y-114.8423
G1 X71.3960 Y-107.9943
G1 X70.4982 Y-100.1692
G1 X70.2455 Y-91.3292
G1 X70.8125 Y-81.5772
G1 X72.3400 Y-71.2570
G1 X74.8436 Y-61.0179
G1 X77.6443 Y-52.8966
G1 X80.4582 Y-46.5887
G1 X83.2061 Y-41.6365
G1 X85.7035 Y-37.9438
G1 X87.9244 Y-35.2130
G1 X90.0990 Y-32.9953
G1 X91.8136 Y-31.5469
G1 X93.3483 Y-30.4686
G1 Z-9.9900 F50
G1 X94.7305 Y-29.6713 F500
G1 X95.9900 Y-29.0879
G1 X97.1533 Y-28.6710
G1 X98.2384 Y-28.3890
G1 X99.3980 Y-28.2023
G1 X100.5850 Y-28.1280
G1 X100.6615 Y-28.1273
G1 X101.9048 Y-28.1830
G1 X103.1679 Y-28.3549
G1 X104.5563 Y-28.6702
G1 X106.1134 Y-29.1683
G1 X107.8981 Y-29.9103
G1 X109.9819 Y-30.9859
G1 X113.0315 Y-32.9172
G1 X117.1541 Y-36.1007
G1 X123.3112 Y-41.8258
G1 X137.4762 Y-57.7047
G1 X159.0053 Y-82.7193
G1 X162.7251 Y-86.4561
G1 X167.9031 Y-91.0996
G1 X171.8436 Y-94.0980
G1 X175.0441 Y-96.1317
G1 X177.8187 Y-97.5689
G1 X180.3618 Y-98.6103
G1 X182.7274 Y-99.3393
G1 X184.9689 Y-99.8150
G1 X187.3232 Y-100.0859
G1 X189.5271 Y-100.1237
G1 X191.7087 Y-99.9523
G1 X193.8560 Y-99.5761
G1 X195.9998 Y-98.9904
G1 X198.1717 Y-98.1768
G1 X200.4042 Y-97.1022
G1 X202.7330 Y-95.7148
G1 X205.1993 Y-93.9375
G1 X207.8344 Y-91.6724
G1 X209.4180 Y-90.1237
G1 X212.5634 Y-86.6112
G1 X216.0318 Y-82.0294
G1 X220.8274 Y-74.3857
G1 X226.7048 Y-62.7554
G1 X234.3968 Y-43.2797
G1 X244.7233 Y-8.0234
G1 X252.5127 Y27.2628
G1 X251.2891 Y52.1970
G1 X247.6612 Y76.6817
G1 X241.6535 Y100.6935
G1 X233.3237 Y124.0018
G1 X222.7518 Y146.3825
G1 X210.0394 Y167.6207
G1 X195.3087 Y187.5121
G1 X178.7013 Y205.8657
G1 X160.3766 Y222.5051
G1 X140.5109 Y237.2704
G1 X119.2950 Y250.0198
G1 X96.9327 Y260.6306
G1 X73.6389 Y269.0010
G1 X49.6376 Y275.0505
G1 X25.1592 Y278.7211
G1 X0.4391 Y279.9773
G1 X-24.2852 Y278.8072
G1 X-48.7762 Y275.2220
G1 X-72.7985 Y269.2561
G1 X-96.1213 Y260.9669
G1 X-118.5204 Y250.4340
G1 X-139.7806 Y237.7587
G1 X-159.6977 Y223.0627
G1 X-178.0802 Y206.4872
G1 X-194.7515 Y188.1916
G1 X-209.5514 Y168.3516
G1 X-222.3377 Y147.1579
G1 X-232.9874 Y124.8141
G1 X-241.3984 Y101.5350
G1 X-247.4898 Y77.5442
G1 X-251.2029 Y53.0723
G1 X-252.5022 Y28.3544
G1 X-251.3752 Y3.6281
G1 X-247.8326 Y-20.8691
G1 X-241.9086 Y-44.9017
G1 X-233.6601 Y-68.2389
G1 X-223.1662 Y-90.6563
G1 X-210.5279 Y-111.9386
G1 X-195.8667 Y-131.8813
G1 X-179.3232 Y-150.2926
G1 X-161.0567 Y-166.9957
G1 X-141.2425 Y-181.8302
G1 X-120.0711 Y-194.6534
G1 X-97.7459 Y-205.3421
G1 X-74.4815 Y-213.7936
G1 X-52.5008 Y-219.4154
G1 Y-279.9743
G1 X52.4992
G1 Y-219.4282
G1 X71.3979 Y-214.7228
G1 X91.7767 Y-207.7577
G1 X111.4879 Y-199.0814
G1 X130.4415 Y-188.7278
G1 X132.3648 Y-187.3140
G1 X133.6183 Y-186.2137
G1 X134.5175 Y-185.2736
G1 X135.1838 Y-184.4414
G1 X135.6865 Y-183.6843
G1 X136.0618 Y-182.9942
G1 X136.3533 Y-182.3235
G1 X136.5698 Y-181.6704
G1 X136.7287 Y-180.9771
G1 X136.8145 Y-180.3017
G1 X136.8338 Y-179.6446
G1 X136.7914 Y-178.9973
G1 X136.6882 Y-178.3510
G1 X136.5166 Y-177.6825
G1 X136.2808 Y-177.0210
G1 X135.9684 Y-176.3396
G1 X135.5632 Y-175.6246
G1 X135.0403 Y-174.8592
G1 X134.3546 Y-174.0130
G1 X133.2882 Y-172.9057
G1 X131.5786 Y-171.4273
G1 X128.5432 Y-169.2506
G1 X118.6766 Y-163.4711
G1 X105.8431 Y-156.1466
G1 X97.8489 Y-150.8870
G1 X92.1047 Y-146.4223
G1 X87.6979 Y-142.3567
G1 X84.2957 Y-138.6162
G1 X81.5511 Y-134.9929
G1 X79.0038 Y-130.8964
G1 X76.7357 Y-126.3913
G1 X74.5278 Y-120.7875
G1 X72.7825 Y-114.8423
G1 X71.3960 Y-107.9943
G1 X70.4982 Y-100.1692
G1 X70.2455 Y-91.3292
G1 X70.8125 Y-81.5772
G1 X72.3400 Y-71.2570
G1 X74.8436 Y-61.0179
G1 X77.6443 Y-52.8966
G1 X80.4582 Y-46.5887
G1 X83.2061 Y-41.6365
G1 X85.7035 Y-37.9438
G1 X87.9244 Y-35.2130
G1 X90.0990 Y-32.9953
G1 X91.8136 Y-31.5469
G1 X93.3483 Y-30.4686
G0 Z4.9900 F50
G0 X90.1950 Y43.3887 F500
G1 Z-9.9900 F50
G1 X97.4021 Y43.9288 F500
G1 X104.5197 Y45.1838
G1 X111.4769 Y47.1413
G1 X118.2046 Y49.7817
G1 X124.6360 Y53.0789
G1 X130.7072 Y57.0
G1 X136.3578 Y61.5063
G1 X141.5316 Y66.5526
G1 X146.1772 Y72.0891
G1 X150.2485 Y78.0606
G1 X153.7050 Y84.4078
G1 X156.5124 Y91.0677
G1 X158.6427 Y97.9739
G1 X160.0747 Y105.0579
G1 X160.7975 Y112.2805
G1 X160.8868 Y115.8630
G1 X160.7975 Y119.4456
G1 X160.0747 Y126.6682
G1 X158.6427 Y133.7522
G1 X156.5124 Y140.6584
G1 X153.7050 Y147.3182
G1 X150.2485 Y153.6655
G1 X146.1772 Y159.6370
G1 X141.5316 Y165.1734
G1 X136.3578 Y170.2198
G1 X130.7071 Y174.7260
G1 X124.6361 Y178.6472
G1 X118.2046 Y181.9444
G1 X111.4768 Y184.5848
G1 X104.5197 Y186.5423
G1 X97.4021 Y187.7973
G1 X90.1950 Y188.3374
G1 X82.9699 Y188.1572
G1 X75.7986 Y187.2585
G1 X68.7525 Y185.6503
G1 X61.9015 Y183.3485
G1 X55.3138 Y180.3760
G1 X49.0547 Y176.7623
G1 X43.1865 Y172.5433
G1 X37.7676 Y167.7612
G1 X32.8517 Y162.4631
G1 X28.4879 Y156.7020
G1 X24.7192 Y150.5349
G1 X21.5834 Y144.0234
G1 X19.1115 Y137.2319
G1 X17.3281 Y130.2281
G1 X16.2510 Y123.0813
G1 X15.8907 Y115.8630
G1 X16.2510 Y108.6447
G1 X17.3282 Y101.4980
G1 X19.1115 Y94.4942
G1 X21.5834 Y87.7027
G1 X24.7192 Y81.1912
G1 X28.4879 Y75.0240
G1 X32.8517 Y69.2629
G1 X37.7676 Y63.9649
G1 X43.1865 Y59.1827
G1 X49.0547 Y54.9638
G1 X55.3137 Y51.3501
G1 X61.9015 Y48.3776
G1 X68.7525 Y46.0758
G1 X75.7986 Y44.4675
G1 X82.9699 Y43.5689
G1 X90.1950 Y43.3887
G0 Z4.9900 F50
G0 X-2.5008 Y24.9747 F500
G1 Z-9.9900 F50
G1 X-67.5008 F500
G1 Y-40.0253
G1 X-2.5008
G1 Y24.9747
G0 Z5.0 F50
; ending rough op after 14 seconds
M30 ; program end